!!!COM: Martinů, Bohuslav (Jan)
!!!OTL: [T510_Mau-w67p32m1-9]
**kern	**kern	**dynam
*grp:A	*grp:B	*
*part1	*part1	*part1
*staff2	*staff1	*
*I"Piano	*	*
*I'Pno.	*	*
*clefF4	*clefG2	*
*k[]	*k[]	*
*C:	*C:	*
*M6/8	*M6/8	*
=1	=1	=1
!	!LO:TX:t=Allegretto poco moderato [quarter]=72 (66)	!
(4.BBB-X	4ryy	4ryy
.	8ryy	.
4BB-X	8ryy	.
.	4ryy	.
[8B-X	.	.
=2	=2	=2
*	*^	*
8B-])	4ryy	4ryyyy	.
(4BBB-X	.	.	.
.	8ryy	8ryy	.
4BB-X	4ryy	4ryy	.
*	*v	*v	*
[8B-y	8ryy	.
=3	=3	=3
8B-])	8ryy	.
(<4BBB-X\	8ryy	.
.	8ryy	4ryy
4BB-X	8ryy	.
.	4ryy	.
[8B-X	.	.
=4	=4	=4
8B-])	8ryy	.
8rBB	4ryy	4ryy
([8BBB-X	.	.
8BBB-]	4ryy	.
4BB-X	.	.
.	8ryy	.
=5	=5	=5
4.B-X)	4.ryy	.
(<4BBB-X	8ryy	.
.	4ryy	4ryy
[<8BB-X\	.	.
!!linebreak:original
=6	=6	=6
8BB-X]	4ryy	.
[4B-X	.	.
.	8ryy	.
8B-])	4ryy	4ryy
(4EE-X	.	.
.	8ryy	.
=7	=7	=7
4.E-X)	8ryy	.
.	8ryy	.
.	8ryy	4ryy
(4CC	8ryy	.
.	4ryy	.
[8C	.	.
=8	=8	=8
8C]	4ryy	.
4BB-X	.	.
.	8ryy	.
4B-X)	8ryy	.
.	8ryy	4ryy
([8AAA-X [8AA-X	8ryy	4ryy
=9	=9	=9
8AAA-] 8AA-]	8ryy	4ryy
4AA-X 4A-X	4ryy	.
4BB-X~ 4B-X)	8ryy	4ryy
.	4ryy	.
[8FF [8F	.	4ryy
=	=	=
*-	*-	*-
!!!system-decoration: [({(s1,s2)})]
!!!RDF**kern: > = above
!!!RDF**kern: < = below
!!!EED: Rafael Laurindo
!!!EED2: Jason Lee
!!!EEV2: 2022/02/08
